X:1
T:The Money Crop
M:4/4
L:1/4
K:C
 E| E/2 A3/2 A B| A- G E3/2 E/2| E/2 G3/2 E D| E3| E| E A A/2 B3/2|\
 A/2 G3/2 E3/2 E/2| E/2 G3/2 E D| E3| E| A A A3/2 B/2| c A A3/2 B/2|\
 c A z A/2A/2| G3| ^G| A E E E| G/2 E3/2 E E| E G E D| E3||
